X: 43
T: No_49_Frog-Dance_Song.krn
N: Derived from No_49_Frog-Dance_Song.krn
%%abc-version 2.0
%%abcx-abcm2ps-target-version 5.9.1 (29 Sep 2008)
%%abc-creator hum2abc beta
%%abcx-conversion-date 2019/03/15 08:27:55
%%humdrum-veritas 1274124022
%%humdrum-veritas-data 3188747985
%%linebreak <none>
%%barnumbers 0
L: 1/8
M: 3/4
%%staves {1 2}
V: 1 clef=bass
V: 2 clef=bass
K: Bb
[V:1] [K:clef=bass][M:3/4]z4FG3//F// ]|:  
[V:2] [K:clef=bass][M:3/4]G,,2G,,2G,,2 ]|:  
[V:1] F4C/E3/ | 
[V:2] G,,2G,,2G,,2 | 
[V:1] [M:2/4]C/C/B, B,B, | 
[V:2] [M:2/4]z4 | 
[V:1] B,B, F,/G,3/ | 
[V:2] z4 | 
[V:1] G,/G,/F, F,F, | 
[V:2] z4 | 
[V:1] [M:5/8]F,F, z DF3//D// | 
[V:2] [M:5/8](3:2:1z15/ | 
[V:1] [M:3/4]DD DD B,/D3/ | 
[V:2] [M:3/4]z6 | 
[V:1] [M:2/4]B,/G,3/ G,G, | 
[V:2] [M:2/4]z4 | 
[V:1] G,G, D,/G,3/ | 
[V:2] z4 | 
[V:1] G,/G,/F, F,F, | 
[V:2] z4 | 
[V:1] [M:5/8]F,F, z B,D3//B,// | 
[V:2] [M:5/8](3:2:1z15/ | 
[V:1] [M:3/4]B,B, B,B, F,/G,3/ | 
[V:2] [M:3/4]z6 | 
[V:1] [M:2/4]G,/G,/F, F,F, | 
[V:2] [M:2/4]z4 | 
[V:1] F,F, D,/D,3/ | 
[V:2] z4 | 
[V:1] C,/C,/B,, C,/C,/B,, | 
[V:2] z4 | 
[V:1] B,,2B,,2 | 
[V:2] z4 | 
[V:1] B,, z FG3//F// :|]  
[V:2] z4 :|]  
[V:1] B,,z3 |]  
[V:2] z4 |]  



